X:66
T:Black Dance. JGi.066
O:Tealby,Lincolnshire
M:C|
L:1/8
Q:1/4=140
S:Joshua Gibbons MS,1823,Tealby,Lincs.
R:Reel
Z:VMP/R.Greig, 2009
K:G
dB|G2G2ABcA|dedc B2dB|G2G2ABcA|dedc B2:|
|:ef|g2g2g2fe|d2d2d2cB|A2A2ABcA|B2G2G2|

